ZUCCAL
CUT[SEY NUR STILL, HAST LANG GESCHWIEGEN]
REG[Europa, Mitteleuropa, Deutschland, Coburg]
TRD[]
FKT[]
SIG[Z0283]
KEY[Z0283   08  A 4/4]
MEL[1234  5_5_67+16  655
    43_.4  5_5_6543  3_2_
    1234  5_5_67+16  655
    43_.4  5_5_6543  3_2_0__
    5_.34_.2  353_2_0_
    3235543_  22334654  3_2_1_0_
    5_.34_.2  353_2_0_
    3235543_  22334654  3_2_1_0_ //]
BEM[]
MEL_SEM[2 2 1 2 0 2 2 1 -3 0 -2 0 -2 -1 1 2 0 2 -2 -2 -1 0 -2 -2 2 2 1 2 0 2 2 1 -3 0 -2 0 -2 -1 1 2 0 2 -2 -2 -1 0 -2 5 -3 1 -3 2 3 -3 -2 2 -2 2 3 0 -2 -1 -2 0 2 0 1 4 -2 -2 -1 -2 -2 7 -3 1 -3 2 3 -3 -2 2 -2 2 3 0 -2 -1 -2 0 2 0 1 4 -2 -2 -1 -2 -2]
MEL_RAW[1234  5567+16  655
    434  556543  32
    1234  5567+16  655
    434  556543  320
    5342  35320
    3235543  22334654  3210
    5342  35320
    3235543  22334654  3210]
NO_REP[1234567+165
    434565432
    1234567+165
    4345654320
    534235320
    3235432346543210
    534235320
    3235432346543210]
RTM[xxxx  x_x_xxxx  xxx
    xx_.x  x_x_xxxx  x_x_
    xxxx  x_x_xxxx  xxx
    xx_.x  x_x_xxxx  x_x_x__
    x_.xx_.x  xxx_x_x_
    xxxxxxx_  xxxxxxxx  x_x_x_x_
    x_.xx_.x  xxx_x_x_
    xxxxxxx_  xxxxxxxx  x_x_x_x_]
SCL_DEG[1234567+1]
SCL_SEM[2 2 1 2 2 2 1]

